src/assets/media/svg/sprite/add-new.svg

<svg xmlns="http://www.w3.org/2000/svg" width="24" height="24"><path d="M12 1C5.926 1 1 5.925 1 12s4.926 11 11 11 11-4.925 11-11S18.074 1 12 1m5 12h-4v4h-2v-4H7v-2h4V7h2v4h4z"/></svg>

<svg width="24" height="24" viewBox="0 0 24 24"  xmlns="http://www.w3.org/2000/svg">
<path d="M12 1C5.926 1 1 5.925 1 12C1 18.075 5.926 23 12 23C18.074 23 23 18.075 23 12C23 5.925 18.074 1 12 1ZM17 13H13V17H11V13H7V11H11V7H13V11H17V13Z" />
</svg>
